public/images/favicon.svg

<svg width="32" height="32" viewBox="0 0 32 32" xmlns="http://www.w3.org/2000/svg"><style>@media (prefers-color-scheme: dark) {path:first-of-type {fill: #ff5a5a;}}</style><path d="M8.48098 15.9819C3.88541 21.5476 15.5017 31.9636 17.4391 24.4579C18.6485 19.3697 13.0814 11.6173 7.99964 16.2223" fill="#C82E2E"/><path d="M27.9211 2.00147C28.163 -0.660393 25.7442 -0.418406 24.5349 1.27551L24.0511 1.03352C24.5061 1.5901 25.1285 1.98493 25.8257 2.15932C26.5229 2.33371 27.2578 2.27835 27.9211 2.00147ZM17.5286 4.23101C19.3652 3.33082 21.2687 2.54919 23.1932 1.76757C21.1395 2.12827 19.1278 2.69718 17.1892 3.46552C15.2253 4.22786 13.3682 5.24105 11.664 6.47988C11.2399 6.79688 10.8239 7.1268 10.428 7.48171C10.0321 7.83663 9.64839 8.20607 9.28719 8.59809C8.55848 9.38003 7.92617 10.2466 7.40382 11.1793C6.8845 12.1105 6.50061 13.1112 6.26379 14.1509C6.14785 14.6654 6.07104 15.188 6.03401 15.7141C6.01627 15.9763 6.00338 16.2376 6.0066 16.499C6.00983 16.7603 6.01788 17.0209 6.04127 17.2798C6.07997 17.0225 6.11867 16.7676 6.16705 16.5135C6.21542 16.2594 6.26701 16.0086 6.32828 15.7593C6.44749 15.2642 6.59448 14.7763 6.7685 14.2977C7.11334 13.3526 7.56795 12.4514 8.12298 11.6124C9.25591 9.95465 10.6699 8.50782 12.3009 7.33733C13.945 6.14432 15.6949 5.10453 17.5286 4.23101ZM5.65127 24.0438C5.70536 23.7549 5.75975 23.4645 5.80022 23.1698C5.17183 24.2824 4.67609 25.4649 4.32318 26.6931C4.23853 27.0021 4.16355 27.3247 4.10873 27.6474C4.04982 27.977 4.01451 28.3105 4.0031 28.6452C3.98986 28.9991 4.01909 29.3533 4.09018 29.7002C4.13037 29.8872 4.18927 30.0696 4.26595 30.2447C4.28611 30.2899 4.30706 30.335 4.33044 30.3794L4.36592 30.4464L4.39978 30.506C4.44925 30.591 4.50308 30.6734 4.56104 30.7529C4.79107 31.0638 5.08249 31.324 5.41725 31.5176C5.73701 31.6971 6.08273 31.8258 6.442 31.8991C6.78052 31.9682 7.12528 32.002 7.47076 31.9999C7.64008 31.9999 7.80776 31.9951 7.97304 31.9814C8.13832 31.9677 8.3044 31.9491 8.46565 31.9265C9.10666 31.8306 9.73707 31.6737 10.3482 31.4579C10.6506 31.3482 10.9465 31.2344 11.2399 31.1062C11.5334 30.9779 11.8188 30.8392 12.0978 30.6835C11.8162 30.7215 11.5385 30.7633 11.2617 30.805L11.1577 30.8206C10.8465 30.8674 10.5369 30.9102 10.2281 30.9481C9.62081 31.029 9.0096 31.0769 8.39713 31.0917C7.81632 31.1121 7.23548 31.0524 6.67097 30.9142C6.41557 30.8492 6.17109 30.747 5.94536 30.6109C5.7369 30.4872 5.55561 30.3226 5.41243 30.1269C5.37695 30.0801 5.34147 30.0253 5.31406 29.9801L5.28583 29.9317L5.26568 29.8954C5.25735 29.8772 5.24902 29.8597 5.24091 29.8425C5.23645 29.8332 5.23207 29.8239 5.22779 29.8148C5.17786 29.7024 5.13818 29.5858 5.10927 29.4663C5.04611 29.1989 5.01204 28.9255 5.00768 28.6508C5.00123 28.0538 5.04437 27.4572 5.13668 26.8674C5.22537 26.2608 5.34066 25.651 5.45917 25.0363L5.63898 24.1095L5.65127 24.0438ZM12.3525 11.9948C12.6009 11.7522 12.8707 11.5327 13.1588 11.339C13.4498 11.1452 13.7545 10.9729 14.0706 10.8236C14.7084 10.5267 15.3794 10.3073 16.0693 10.1702C17.458 9.90083 18.8825 9.87137 20.2811 10.0831C20.9832 10.1846 21.676 10.3419 22.3531 10.5534C23.0355 10.7637 23.6982 11.0336 24.3333 11.36C24.9767 11.6904 25.5827 12.089 26.1409 12.549C26.7096 13.0183 27.2088 13.5661 27.6236 14.1759C27.8303 14.4866 28.0099 14.8145 28.1605 15.156C28.6214 16.1934 28.7683 17.3431 28.583 18.4632C28.4621 19.1898 28.231 19.8938 27.8977 20.5507C27.7363 20.8738 27.5559 21.187 27.3575 21.4888C27.1597 21.7872 26.9472 22.0755 26.7206 22.3527C25.8171 23.4405 24.7403 24.3715 23.5335 25.1081C22.9394 25.4751 22.3156 25.7916 21.6686 26.0543C21.3461 26.1834 21.018 26.2963 20.6858 26.3987C20.3541 26.4963 20.0167 26.5736 19.6756 26.6302C20.9581 26.1686 22.1604 25.5092 23.2392 24.6758C24.3127 23.8731 25.2633 22.9179 26.061 21.8405C26.2554 21.5735 26.4368 21.2976 26.602 21.0153C26.7683 20.7353 26.9185 20.4461 27.0519 20.149C27.3173 19.5674 27.4971 18.9504 27.5857 18.3172C27.7138 17.388 27.5788 16.4414 27.1963 15.5851C27.0677 15.2987 26.9151 15.0237 26.7399 14.7632C26.3833 14.2342 25.9545 13.7577 25.4661 13.3475C24.9699 12.9262 24.4321 12.5568 23.8608 12.2449C21.5005 10.9785 18.8203 10.4338 16.1531 10.6784C15.4837 10.746 14.8233 10.8839 14.1827 11.0898C13.8607 11.1945 13.5465 11.322 13.2426 11.4713C12.9324 11.6217 12.6348 11.7968 12.3525 11.9948ZM18.7477 29.7607C18.7956 29.7711 18.844 29.7789 18.8928 29.7841L18.8879 29.505L18.8831 29.2501C18.802 29.1385 18.7295 29.021 18.6662 28.8984C18.5338 28.6428 18.4159 28.38 18.3131 28.1112C18.2869 28.0456 18.2609 27.9794 18.2346 27.9127L18.2346 27.9126L18.2346 27.9126C18.1511 27.7002 18.0656 27.4827 17.9656 27.2642C17.8987 27.1168 17.8236 26.9733 17.7406 26.8343C17.6578 26.7862 17.5713 26.7449 17.4819 26.7108C17.4359 26.6939 17.3907 26.6786 17.3448 26.6657C17.2975 26.6535 17.2496 26.6441 17.2013 26.6374V26.7794V26.9125C17.1988 27.0028 17.1964 27.0835 17.1908 27.1642C17.2612 27.2826 17.325 27.4049 17.3819 27.5304C17.4743 27.7323 17.5582 27.9462 17.6442 28.1654C17.6555 28.1941 17.6668 28.2229 17.6782 28.2518C17.6847 28.2684 17.6912 28.285 17.6978 28.3016C17.7037 28.3166 17.7097 28.3316 17.7156 28.3467C17.8275 28.6379 17.9556 28.9225 18.0994 29.1993C18.1673 29.3293 18.2461 29.4545 18.3257 29.5813L18.3477 29.6163C18.432 29.6589 18.5197 29.6945 18.6098 29.7228C18.6556 29.7364 18.7014 29.7485 18.7471 29.7606L18.7477 29.7607ZM15.7468 28.087C15.7717 28.0945 15.7945 28.1032 15.8169 28.1118L15.817 28.1118C15.8309 28.1171 15.8447 28.1224 15.8589 28.1273L15.9605 28.1669C16.0282 28.1927 16.0895 28.2193 16.1491 28.2475C16.1699 28.3117 16.1978 28.3733 16.2258 28.4355C16.2369 28.4601 16.248 28.4847 16.2588 28.5097C16.3393 28.6836 16.4254 28.8584 16.5131 29.0363L16.5136 29.0372C16.523 29.0563 16.5324 29.0753 16.5419 29.0945L16.5631 29.1373L16.5631 29.1373C16.6353 29.2832 16.7085 29.4311 16.778 29.5833C16.8208 29.6769 16.8627 29.772 16.9022 29.8688C16.8547 30.0104 16.7906 30.1458 16.7111 30.2722C16.5924 30.2309 16.4926 30.1887 16.394 30.147C16.3654 30.1349 16.3368 30.1228 16.308 30.1108C16.2725 30.0237 16.2338 29.9366 16.1943 29.8495C16.1137 29.6753 16.0266 29.4994 15.9379 29.322C15.8492 29.1445 15.7589 28.9622 15.6735 28.7751C15.6524 28.7306 15.6331 28.6853 15.6138 28.6399L15.6136 28.6396L15.6135 28.6393C15.5922 28.5894 15.5709 28.5392 15.5469 28.4895C15.5693 28.4214 15.5963 28.3548 15.6275 28.2903L15.6783 28.1894C15.6915 28.1713 15.7026 28.154 15.7136 28.1368L15.7137 28.1366C15.7242 28.1202 15.7347 28.1039 15.7468 28.087Z" fill="#2C6C60"/></svg>

<svg width="32" height="32" viewBox="0 0 32 32" xmlns="http://www.w3.org/2000/svg"><style>@media (prefers-color-scheme: dark) {path:first-of-type {fill: #ff5a5a;}}</style><path d="M8.481 15.982c-4.596 5.566 7.02 15.982 8.958 8.476 1.21-5.088-4.358-12.84-9.44-8.236" fill="#C82E2E"/><path d="M27.921 2.001c.242-2.661-2.177-2.42-3.386-.725l-.484-.242a3.339 3.339 0 0 0 3.87.967ZM17.53 4.231c1.836-.9 3.74-1.682 5.664-2.463-2.053.36-4.065.93-6.004 1.698a24.435 24.435 0 0 0-5.525 3.014c-.424.317-.84.647-1.236 1.002s-.78.724-1.14 1.116a13.365 13.365 0 0 0-1.884 2.581c-.52.931-.903 1.932-1.14 2.972a10.448 10.448 0 0 0-.223 3.129 21.5 21.5 0 0 1 .126-.767 13.58 13.58 0 0 1 .601-2.216c.345-.944.8-1.846 1.355-2.685a17.224 17.224 0 0 1 4.178-4.275 33.248 33.248 0 0 1 5.228-3.106ZM5.65 24.044c.054-.29.109-.58.15-.874a16.34 16.34 0 0 0-1.478 3.523c-.084.31-.16.632-.214.954-.06.33-.094.664-.106.998A4.43 4.43 0 0 0 4.09 29.7a2.85 2.85 0 0 0 .24.68l.036.066.034.06a2.823 2.823 0 0 0 1.017 1.012c.32.18.666.308 1.025.381.339.07.683.103 1.029.1.17 0 .337-.004.502-.018.165-.013.331-.032.493-.055a10.176 10.176 0 0 0 1.882-.468c.303-.11.598-.224.892-.352a9.75 9.75 0 0 0 .858-.423c-.282.038-.56.08-.836.122l-.104.016c-.311.046-.621.09-.93.127a16.97 16.97 0 0 1-1.83.144 6.348 6.348 0 0 1-1.727-.178 2.69 2.69 0 0 1-.726-.303 1.796 1.796 0 0 1-.63-.63l-.03-.05-.02-.036-.024-.052a2.04 2.04 0 0 1-.132-.376 3.81 3.81 0 0 1-.101-.816c-.007-.597.036-1.194.129-1.784.088-.606.204-1.216.322-1.83l.18-.927.012-.066Zm6.701-12.05c.249-.242.519-.461.807-.655a6.98 6.98 0 0 1 .912-.515 8.8 8.8 0 0 1 1.998-.654 12.384 12.384 0 0 1 4.212-.087 13.36 13.36 0 0 1 2.072.47c.682.21 1.345.48 1.98.807.644.33 1.25.729 1.808 1.189a7.79 7.79 0 0 1 1.483 1.627c.206.31.386.639.537.98a5.81 5.81 0 0 1 .422 3.307 7.24 7.24 0 0 1-.685 2.088 9.157 9.157 0 0 1-.54.938c-.198.298-.41.587-.637.864a12.837 12.837 0 0 1-3.188 2.755c-.594.367-1.217.684-1.864.946-.323.13-.651.242-.983.345a8.52 8.52 0 0 1-1.01.231 13.068 13.068 0 0 0 3.563-1.954 13.775 13.775 0 0 0 2.822-2.835 9.898 9.898 0 0 0 .99-1.692 6.623 6.623 0 0 0 .535-1.832 5.019 5.019 0 0 0-.39-2.732 5.536 5.536 0 0 0-.456-.822 6.846 6.846 0 0 0-1.274-1.415 9.552 9.552 0 0 0-1.605-1.103 13.663 13.663 0 0 0-7.708-1.567c-.67.068-1.33.206-1.97.412a7.137 7.137 0 0 0-.94.381c-.31.15-.608.326-.89.524Zm6.396 17.767c.048.01.096.018.145.023l-.005-.279-.005-.255a2.724 2.724 0 0 1-.217-.352 7.662 7.662 0 0 1-.353-.787l-.078-.198a13.21 13.21 0 0 0-.27-.649 4.325 4.325 0 0 0-.224-.43 1.773 1.773 0 0 0-.396-.168 1.277 1.277 0 0 0-.144-.029v.276c-.002.09-.005.17-.01.251.07.119.134.24.19.366.093.202.177.416.263.635l.034.087.02.05.018.045c.111.29.24.575.383.852.068.13.147.255.227.382l.022.035c.084.043.172.079.262.107l.137.038Zm-3.001-1.674a.985.985 0 0 1 .07.025l.042.015.101.04c.068.026.13.052.19.08.02.065.048.126.076.189l.033.074c.08.174.166.348.254.526v.001l.029.058.021.042c.072.146.146.294.215.446.043.094.085.189.124.286a1.881 1.881 0 0 1-.19.403 4.99 4.99 0 0 1-.404-.161 7.38 7.38 0 0 0-.114-.262 19.48 19.48 0 0 0-.256-.527 17.204 17.204 0 0 1-.324-.682c-.022-.05-.043-.1-.067-.15a1.62 1.62 0 0 1 .08-.2l.051-.1.036-.053a.478.478 0 0 1 .033-.05Z" fill="#2C6C60"/></svg>
